openmetadata-ui/src/main/resources/ui/src/assets/svg/checkbox-primary.svg

<svg width="16" height="14" viewBox="0 0 16 14" fill="none" xmlns="http://www.w3.org/2000/svg">
<path fill-rule="evenodd" clip-rule="evenodd" d="M1 6.99121C1 10.529 3.87869 13.4076 7.4165 13.4076C10.9543 13.4076 13.8329 10.529 13.8329 6.99121C13.8329 6.78005 13.823 6.57124 13.8032 6.36531C13.7798 6.12499 13.5669 5.94994 13.3255 5.97215C13.0851 5.99544 12.909 6.20895 12.9323 6.44991C12.9492 6.62774 12.9579 6.80857 12.9579 6.99121C12.9579 10.0466 10.4719 12.5326 7.4165 12.5326C4.36104 12.5326 1.87497 10.0466 1.87497 6.99121C1.87497 3.93575 4.36104 1.44968 7.4165 1.44968C8.47871 1.44968 9.51229 1.75237 10.4048 2.32583C10.6084 2.45645 10.8785 2.3976 11.0096 2.19403C11.1404 1.99045 11.0809 1.7198 10.8778 1.58906C9.84361 0.925252 8.64672 0.574707 7.4165 0.574707C3.87869 0.574707 1 3.4534 1 6.99121ZM7.8361 8.32119C7.92122 8.40685 8.03326 8.44946 8.1452 8.44946C8.25724 8.44946 8.36917 8.40685 8.45494 8.32172L14.8714 1.90522C15.0423 1.73433 15.0423 1.45727 14.8714 1.28637C14.7006 1.11548 14.4235 1.11548 14.2525 1.28637L8.14584 7.39313L5.83002 5.07732C5.65913 4.90642 5.38207 4.90642 5.21118 5.07732C5.04028 5.24821 5.04028 5.52527 5.21118 5.69627L7.8361 8.32119Z" fill="#7147E8"/>
<path d="M13.8032 6.36531L13.9276 6.35337L13.9276 6.3532L13.8032 6.36531ZM13.3255 5.97215L13.314 5.84768L13.3134 5.84773L13.3255 5.97215ZM12.9323 6.44991L13.0567 6.4381L13.0567 6.43788L12.9323 6.44991ZM10.4048 2.32583L10.3372 2.43099L10.3373 2.43103L10.4048 2.32583ZM11.0096 2.19403L11.1147 2.26173L11.1148 2.26157L11.0096 2.19403ZM10.8778 1.58906L10.9455 1.48397L10.9454 1.48387L10.8778 1.58906ZM7.8361 8.32119L7.92476 8.23308L7.92448 8.2328L7.8361 8.32119ZM8.45494 8.32172L8.543 8.41044L8.54333 8.41011L8.45494 8.32172ZM14.8714 1.90522L14.7831 1.81683V1.81683L14.8714 1.90522ZM14.8714 1.28637L14.7831 1.37476V1.37476L14.8714 1.28637ZM14.2525 1.28637L14.1641 1.19796L14.1641 1.19799L14.2525 1.28637ZM8.14584 7.39313L8.05745 7.48152L8.14584 7.56991L8.23423 7.48152L8.14584 7.39313ZM5.83002 5.07732L5.91841 4.98893L5.83002 5.07732ZM5.21118 5.07732L5.29957 5.1657L5.21118 5.07732ZM5.21118 5.69627L5.12276 5.78463L5.12279 5.78466L5.21118 5.69627ZM7.4165 13.2826C3.94773 13.2826 1.125 10.46 1.125 6.99121H0.875C0.875 10.5981 3.80966 13.5326 7.4165 13.5326V13.2826ZM13.7079 6.99121C13.7079 10.46 10.8853 13.2826 7.4165 13.2826V13.5326C11.0233 13.5326 13.9579 10.5981 13.9579 6.99121H13.7079ZM13.6788 6.37725C13.6981 6.57915 13.7079 6.78397 13.7079 6.99121H13.9579C13.9579 6.77613 13.9478 6.56333 13.9276 6.35337L13.6788 6.37725ZM13.3369 6.09663C13.5105 6.08066 13.6621 6.20615 13.6788 6.37742L13.9276 6.3532C13.8975 6.04384 13.6234 5.81922 13.314 5.84768L13.3369 6.09663ZM13.0567 6.43788C13.0401 6.26563 13.1659 6.1132 13.3375 6.09657L13.3134 5.84773C13.0044 5.87768 12.7779 6.15227 12.8079 6.46193L13.0567 6.43788ZM13.0829 6.99121C13.0829 6.80458 13.074 6.61981 13.0567 6.4381L12.8078 6.46171C12.8244 6.63567 12.8329 6.81256 12.8329 6.99121H13.0829ZM7.4165 12.6576C10.5409 12.6576 13.0829 10.1156 13.0829 6.99121H12.8329C12.8329 9.97753 10.4028 12.4076 7.4165 12.4076V12.6576ZM1.74997 6.99121C1.74997 10.1156 4.29201 12.6576 7.4165 12.6576V12.4076C4.43007 12.4076 1.99997 9.97753 1.99997 6.99121H1.74997ZM7.4165 1.32468C4.292 1.32468 1.74997 3.86671 1.74997 6.99121H1.99997C1.99997 4.00478 4.43008 1.57468 7.4165 1.57468V1.32468ZM10.4724 2.22066C9.55964 1.63422 8.50259 1.32468 7.4165 1.32468V1.57468C8.45483 1.57468 9.46494 1.87053 10.3372 2.43099L10.4724 2.22066ZM10.9046 2.12633C10.8107 2.27206 10.6177 2.31394 10.4723 2.22062L10.3373 2.43103C10.599 2.59896 10.9463 2.52315 11.1147 2.26173L10.9046 2.12633ZM10.8102 1.69416C10.9554 1.7877 10.9978 1.98117 10.9045 2.12648L11.1148 2.26157C11.283 1.99973 11.2063 1.65189 10.9455 1.48397L10.8102 1.69416ZM7.4165 0.699707C8.62283 0.699707 9.79628 1.0434 10.8103 1.69426L10.9454 1.48387C9.89094 0.807099 8.67061 0.449707 7.4165 0.449707V0.699707ZM1.125 6.99121C1.125 3.52244 3.94773 0.699707 7.4165 0.699707V0.449707C3.80966 0.449707 0.875 3.38437 0.875 6.99121H1.125ZM8.1452 8.32446C8.06495 8.32446 7.98532 8.29401 7.92476 8.23308L7.74743 8.4093C7.85713 8.51968 8.00158 8.57446 8.1452 8.57446V8.32446ZM8.36689 8.233C8.30541 8.29402 8.2255 8.32446 8.1452 8.32446V8.57446C8.28898 8.57446 8.43294 8.51967 8.543 8.41044L8.36689 8.233ZM14.7831 1.81683L8.36655 8.23333L8.54333 8.41011L14.9598 1.99361L14.7831 1.81683ZM14.7831 1.37476C14.9051 1.49684 14.9051 1.69475 14.7831 1.81683L14.9598 1.99361C15.1795 1.7739 15.1795 1.41769 14.9598 1.19798L14.7831 1.37476ZM14.3409 1.37479C14.4631 1.25266 14.661 1.2527 14.7831 1.37476L14.9598 1.19798C14.7401 0.978261 14.3839 0.9783 14.1641 1.19796L14.3409 1.37479ZM8.23423 7.48152L14.3409 1.37476L14.1641 1.19799L8.05745 7.30474L8.23423 7.48152ZM5.74164 5.1657L8.05745 7.48152L8.23423 7.30474L5.91841 4.98893L5.74164 5.1657ZM5.29957 5.1657C5.42164 5.04363 5.61956 5.04363 5.74164 5.1657L5.91841 4.98893C5.6987 4.76922 5.3425 4.76922 5.12279 4.98893L5.29957 5.1657ZM5.29959 5.60791C5.17746 5.4857 5.1775 5.28777 5.29957 5.1657L5.12279 4.98893C4.90307 5.20865 4.90311 5.56484 5.12276 5.78463L5.29959 5.60791ZM7.92448 8.2328L5.29957 5.60788L5.12279 5.78466L7.74771 8.40958L7.92448 8.2328Z" fill="#7147E8"/>
</svg>

<svg xmlns="http://www.w3.org/2000/svg" width="16" height="14" fill="none"><path fill="#7147E8" fill-rule="evenodd" d="M1 6.991a6.424 6.424 0 0 0 6.417 6.417 6.424 6.424 0 0 0 6.386-7.043.438.438 0 0 0-.87.085 5.548 5.548 0 0 1-5.516 6.083A5.548 5.548 0 0 1 1.875 6.99 5.548 5.548 0 0 1 7.417 1.45c1.062 0 2.095.302 2.988.876a.438.438 0 1 0 .473-.737A6.395 6.395 0 0 0 7.416.575 6.424 6.424 0 0 0 1 6.99Zm6.836 1.33a.438.438 0 0 0 .619 0l6.416-6.416a.438.438 0 1 0-.619-.619L8.146 7.393 5.83 5.077a.438.438 0 1 0-.619.62L7.836 8.32Z" clip-rule="evenodd"/><path fill="#7147E8" d="m13.803 6.365.125-.012-.125.012Zm-.478-.393-.011-.124.011.124Zm-.393.478.125-.012-.125.012Zm-2.527-4.124-.068.105.068-.105Zm.605-.132.105.068-.105-.068Zm-.132-.605.067-.105-.067.105ZM7.836 8.321l.089-.088-.089.088Zm.619 0 .088.09-.088-.09Zm6.416-6.416-.088-.088.088.088Zm0-.619-.088.089.088-.089Zm-.619 0-.088-.088.088.088ZM8.146 7.393l-.089.089.089.088.088-.088-.088-.089ZM5.83 5.077l.088-.088-.088.088Zm-.619 0 .089.089-.089-.089Zm0 .62-.088.088.088-.089Zm2.205 7.586A6.299 6.299 0 0 1 1.125 6.99h-.25a6.549 6.549 0 0 0 6.542 6.542v-.25Zm6.292-6.292a6.299 6.299 0 0 1-6.292 6.292v.25a6.549 6.549 0 0 0 6.542-6.542h-.25Zm-.03-.614c.02.202.03.407.03.614h.25c0-.215-.01-.428-.03-.638l-.25.024Zm-.341-.28a.313.313 0 0 1 .342.28l.249-.024a.563.563 0 0 0-.614-.505l.023.249Zm-.28.34a.312.312 0 0 1 .28-.34l-.024-.25a.562.562 0 0 0-.505.615l.249-.024Zm.026.554c0-.186-.009-.371-.026-.553l-.25.024c.017.174.026.35.026.53h.25Zm-5.667 5.667a5.673 5.673 0 0 0 5.667-5.667h-.25a5.423 5.423 0 0 1-5.417 5.417v.25ZM1.75 6.99a5.673 5.673 0 0 0 5.667 5.667v-.25A5.423 5.423 0 0 1 2 6.99h-.25Zm5.667-5.666A5.673 5.673 0 0 0 1.75 6.99H2a5.423 5.423 0 0 1 5.417-5.416v-.25Zm3.055.896a5.643 5.643 0 0 0-3.055-.896v.25c1.038 0 2.048.296 2.92.856l.135-.21Zm.433-.095a.313.313 0 0 1-.433.095l-.135.21a.563.563 0 0 0 .778-.17l-.21-.135Zm-.095-.432a.313.313 0 0 1 .095.432l.21.136a.563.563 0 0 0-.17-.778l-.135.21ZM7.416.7a6.27 6.27 0 0 1 3.394.994l.135-.21A6.52 6.52 0 0 0 7.416.45V.7ZM1.125 6.99A6.3 6.3 0 0 1 7.417.7V.45A6.55 6.55 0 0 0 .875 6.99h.25Zm7.02 1.333a.31.31 0 0 1-.22-.09l-.178.175a.56.56 0 0 0 .398.165v-.25Zm.222-.091a.313.313 0 0 1-.222.091v.25a.563.563 0 0 0 .398-.164l-.176-.177Zm6.416-6.416L8.367 8.233l.176.177 6.417-6.416-.177-.177Zm0-.442a.313.313 0 0 1 0 .442l.177.177a.563.563 0 0 0 0-.796l-.177.177Zm-.442 0a.313.313 0 0 1 .442 0l.177-.177a.563.563 0 0 0-.796 0l.177.177ZM8.234 7.482l6.107-6.107-.177-.177-6.107 6.107.177.177ZM5.742 5.166l2.315 2.316.177-.177-2.316-2.316-.176.177Zm-.442 0a.313.313 0 0 1 .442 0l.176-.177a.563.563 0 0 0-.795 0l.177.177Zm0 .442a.313.313 0 0 1 0-.442l-.177-.177a.563.563 0 0 0 0 .796l.177-.177Zm2.624 2.625L5.3 5.608l-.177.177L7.748 8.41l.176-.177Z"/></svg>
